assets/svg/tools/fastai.svg

<?xml version="1.0" encoding="UTF-8"?>
<svg width="24" height="24" viewBox="0 0 24 24" fill="none" xmlns="http://www.w3.org/2000/svg">
    <defs>
        <linearGradient id="fastai_gradient" x1="2" y1="2" x2="22" y2="22" gradientUnits="userSpaceOnUse">
            <stop offset="0%" stop-color="#00A4DB"/>
            <stop offset="100%" stop-color="#0077B6"/>
        </linearGradient>
    </defs>
    <path d="M12 2C6.48 2 2 6.48 2 12C2 17.52 6.48 22 12 22C17.52 22 22 17.52 22 12C22 6.48 17.52 2 12 2ZM10 17V7H14C15.1 7 16 7.9 16 9V11C16 12.1 15.1 13 14 13H12V17H10ZM12 11H14V9H12V11Z" fill="url(#fastai_gradient)"/>
</svg>

<svg xmlns="http://www.w3.org/2000/svg" width="24" height="24" fill="none"><defs><linearGradient id="a" x1="2" x2="22" y1="2" y2="22" gradientUnits="userSpaceOnUse"><stop offset="0%" stop-color="#00A4DB"/><stop offset="100%" stop-color="#0077B6"/></linearGradient></defs><path fill="url(#a)" d="M12 2C6.48 2 2 6.48 2 12s4.48 10 10 10 10-4.48 10-10S17.52 2 12 2m-2 15V7h4c1.1 0 2 .9 2 2v2c0 1.1-.9 2-2 2h-2v4zm2-6h2V9h-2z"/></svg>
